X:100
T:Andy Renwick's Ferret
M:C|
L:1/8
C:Gordon Duncan
R:reel
D:Battlefield Band: Celtic Hotel Nomos: I Won't Be Afraid
Any More Craobh
D:Rua: The More That's Said the Less the Better
H:Gordon Duncan is a highland piper from Scotland
Z:ABC by Henrik Norbeck
K:Ador
cA~A2 ABcd|eaag agef|gd~d2 egde|degd egdB|
cA~A2 ABcd|eaag agef|gd~d2 efgd|1 edgB A2AB:|2edgB A2Bd||
|:eaag ageg|a2ag agef|gd~d2 egde|degd egdg|
eaag ageg|a2ag agef|gd~d2 efgd|edgB A2Bd|
eaag ageg|a2ag agef|gd~d2 egde|degd egdB|
cA~A2 ABcd|eaag agef|gd~d2 efgd|edgB A2AB||
|:cA~A2 ~A2cA|~A2cA agef|gd~d2 ^cdcd|~d2^cd cddB|_
cA~A2 ~A2cA|~A2cA agef|gd~d2 efgd|1 edgB A2AB:|2edgB A2Bd||
|:eaag ag g|ageg ~a3f|gd~d2 eggd|^cdgd eggd|
eaag ageg|ageg ~a3f|gd~d2 efgd|edgB A2Bd|
eaag ageg|ageg ~a3f|gd~d2 eggd|^cdgd eggd|
cA~A2 ~A2cA|~A2cA agef|gd~d2 efgd|edgB A2AB||

